FastReport.Core.Web/Resources/reload.svg

<svg width="20" height="18" viewBox="0 0 20 18" fill="none" xmlns="http://www.w3.org/2000/svg">
<path d="M2.88862 5C3.64581 3.72229 4.75093 2.67345 6.08179 1.96946C7.41266 1.26547 8.91743 0.93375 10.4297 1.01097C11.942 1.08818 13.403 1.57133 14.651 2.40699C15.8991 3.24266 16.8856 4.39828 17.5016 5.74611M1 2.51537L1.7487 5.6749C1.87621 6.21303 2.42736 6.54856 2.97972 6.42433L6.22278 5.69492M17.1114 12.9999C16.3542 14.2776 15.2491 15.3264 13.9182 16.0304C12.5873 16.7344 11.0826 17.0661 9.57026 16.9889C8.05796 16.9117 6.59702 16.4286 5.34898 15.5929C4.10094 14.7572 3.1144 13.6016 2.49845 12.2538M19 15.4845L18.2513 12.325C18.1238 11.7869 17.5726 11.4513 17.0203 11.5756L13.7772 12.305" stroke="#35363A" stroke-width="2" stroke-linecap="round"/>
</svg>

<svg viewBox="0 0 20 18" fill="none" xmlns="http://www.w3.org/2000/svg"><path d="M2.889 5a8.117 8.117 0 0 1 3.193-3.03 8.39 8.39 0 0 1 4.348-.959 8.356 8.356 0 0 1 4.221 1.396 8.053 8.053 0 0 1 2.85 3.34M1 2.514l.749 3.16c.127.538.678.874 1.23.75l3.244-.73M17.11 13a8.117 8.117 0 0 1-3.193 3.03 8.39 8.39 0 0 1-4.348.959 8.355 8.355 0 0 1-4.221-1.396 8.053 8.053 0 0 1-2.85-3.34M19 15.486l-.749-3.16a1.027 1.027 0 0 0-1.23-.75l-3.244.73" stroke="#35363A" stroke-width="2" stroke-linecap="round"/></svg>
